X:1
T:Three Sisters
B:Opie, P and I, 1975, The Singing Game, Oxford, OUP
F:http://www.folkinfo.org/songs
S: CHildren from Galoowgate, Glasgow
Z:Dr Katherine Briggs
L:1/8     %
K:Dm
F2 E2 D2 A,2 |C3 D C4 |
w:Once three sis-ters went a walk, 
F2 E2 D2 C2 |F2 G2 A4 |
w:Once three sis-ters went a walk, 
A2 d2 c2 A2 |G2 A2 D4 |
w:Once three sis-ters went a walk, 
 D2 D3/2D/ A/A3/2 A3/2G/ |F2 D2 D4 |]
w:Down by the bon-nie banks of Air-drie, O